X:1
T:6 Songs, Op.3
T:Lied aus dem Gedicht 'Ivan'
T:4. Lied aus dem Gedicht 'Ivan'
T:Johannes Brahms
T:Friedrich Bodenstedt
T:6 Songs, Op.3
T:Creative Commons copyright waiver (CC0 1.0 Universal)
T:Creative Commons copyright waiver (CC0 1.0 Universal)
T:Creative Commons copyright waiver (CC0 1.0 Universal)
C:Johannes Brahms
Z:Friedrich Bodenstedt
Z:Creative Commons copyright waiver (CC0 1.0 Universal)
%%score 1 { ( 2 4 ) | ( 3 5 ) }
L:1/8
Q:1/4=120
M:4/4
K:Gb
V:1 treble nm="Singstimme\nVoice"
V:2 treble nm="Pianoforte"
V:4 treble 
V:3 bass 
V:5 bass 
V:1
"^Mit feurigem Schwung"!f!!<(! E2 (3.G .B!<)! .e !>!g2 f e | (c2- (3cd) e d2 (3:2:2z2!p! d | %2
w: Weit ü- ber das Feld durch die|Lüf- * * te hoch nach|
 e2- (3e d c B2- (3B (.A .G) |"^sostenuto"[Q:1/4=100]!>(! !>!A2 (GF)!>)!!pp! E2 z2 | %4
w: Beu- * te ein mäch- * ti- ger|Gei- er _ flog.|
[Q:1/4=120]"^in tempo" z2 (3:2:2z2!p! c c2 =c2 | d2 G G _c2 =c2 |"^sempre cresc." d2 G G _c2 B B | %7
w: Am Stro- mes-|ran- de im fri- schen|Gras ei- ne jun- ge weiss-|
 c2 B!<(! B c2 =c2!<)! | =d2"^più" B!f!!<(! B e2 =e e!<)! |!fff! f2 B B!>(! !>!=c2 A2!>)! | %10
w: flü- lio- ge Tau- be|sass; o ver- ste- cke dich,|Täub- chen, im grü- nen|
!mp! E2 e e!<(! e2 =e e!<)! |!ff![Q:1/4=100] f2"^sostenuto" B B!>(! _c2 A2!>)! | %12
w: Wald, sonst ver- schlingt dich der|lü- ster- ne Gei- er|
!p![Q:1/4=120]!>(! E4!>)!!pp! z4 | z8 | z4 | z8 ||!f!!<(! (3:2:2E2 E (3(GB)!<)! e !>!g2 (3f f e | %17
w: bald!||||Ei- ne Mö- * ve hoch ü- ber der|
 (c2- (3cd) e d2 (3:2:2z2!p! d | (e2- (3ed) c B2- (3B A G | %19
w: Wol- * * ga fliegt, und|Beu- * * te spä- * hend im|
"^sostenuto"[Q:1/4=100] !>!A2!>(! (.G .F)!>)!!pp! E2 z2 | %20
w: Krei- se sich wiegt.
|
[Q:1/4=120]"^in tempo" z2 (3z z!p! c c2 =c c | d2 G G _c2 =c c | d2 G2 _c2"^sempre" B B | %23
w: O hal- te dich,|Fisch- lein, im Was- ser ver-|steckt, dass dich nicht die|
 c2 B B!<(! c2 =c c!<)! | =d2!f!"^più" B2!<(! e2 =e e!<)! |!fff! f2 B2!>(! !>!=c2 A A!>)! | %26
w: spä- hen- de Mö- ve ent-|deckt! Und steigst du hin-|auf, so steigt sie her-|
!mp! E2 e2!<(! e2 =e e!<)! |"^sostenuto"!ff![Q:1/4=100] f2 B B!>(! _c2 A A | %28
w: ab und macht dich zur|Beu- te und fürhrt dich zum|
 E4!>)!!pp! z4[Q:1/4=120] | z8 | z4 | z8 ||!f!!<(! (3:2:2E2 E (3G B e!<)! (!>!g2 f) e | %33
w: Grab.||||Ach, du grü- nen- de feuch- * te|
 (c2- (3cd) e d2!p! (3z d d | e2- (3e d c"^sostenuto"[Q:1/4=100] B2- (3B A G | %35
w: Er- * * de du! Tu dich|auf, _ leg mein stür- * mi- sches|
!>(! A2 (GF)!>)!!p!!pp! E2 z2 |[Q:1/4=120]"^in tempo" z2!p! c c c2 =c2 | d2 G G _c2 =c2 | %38
w: Herz zur * Ruh!|Blau- es Him- mels-|tuch mit der Stern- lein|
 d2 G2 _c2 B B |"^cresc." c2 B B c2 =c2 | =d2"^sempre più" B2!f![Q:1/4=120] e2 =e e | %41
w: Zier, o trock- ne vom|Au- ge die Trä- ne|mir! Hilf, Him- mel, der|
[Q:1/4=120]"^.1" f2[Q:1/4=120]"^.2" B[Q:1/4=120]"^.3" B[Q:1/4=120]"^.4" =c2[Q:1/4=120]"^.7" A[Q:1/4=120]"^.9" A[Q:1/4=120]"^.5" | %42
w: ar- men, der dul- den den|
[Q:1/4=121]"^.1" E2[Q:1/4=121]"^.6" z[Q:1/4=121]"^.9"!<(! e[Q:1/4=122]"^.2" e2[Q:1/4=122]"^.9" =e[Q:1/4=123]"^.3" e!<)![Q:1/4=121]"^.3"[Q:1/4=122]"^.5" | %43
w: Maid! Es bricht mir das|
[Q:1/4=123]"^.7" f2[Q:1/4=124]"^.7" B2[Q:1/4=125]"^.8"!<(! =e2[Q:1/4=127]"^.1" f[Q:1/4=127]"^.7" f!<)![Q:1/4=124]"^.2"[Q:1/4=125]"^.3"[Q:1/4=126]"^.4" || %44
w: Herz, es bricht mir das|
[M:3/2]!ff![Q:1/4=128]"^.5" !>!_g2[Q:1/4=130] !>!_c2"^sostenuto"[Q:1/4=100] !>!=g4 !>!_g4[Q:1/4=129]"^.2" || %45
w: Herz vor Weh und|
[M:4/4]"^ten."!>(! !>!f4-!>)! f z[Q:1/4=80]!p! B2 | c4 A4 | !fermata!E8 |] %48
w: Leid, _ vor|Weh und|Leid!|
V:2
 !>!E2 (3.[EG].[GB].[Be] !>![eg]2 .[fa].[gb] | !>![ac']2 !>![egc'e']2 !>![gbd'g']2 z2 | %2
 (3.[eg].[df].[ce] !>![Ac]2 (3.[GB].[FA].[EG] !>![CE]2- | %3
"^sostenuto"!>(! [CE]2 (=D2!>)!!pp! E2) (3.[EG].[GB].[Be] | !>![eg]8 | z [_fg]3- [fg] [eg]3 | %6
 z [_fg]3- [fg] [e=g]3- | [eg] [ea]3- [ea] [e=a]3 | z [fb]3- [fb] [=gb]3- | %9
 [gb] [_ab]3 z (a2 =c') | z [e=gbe'] z .e z [gb]3- | [gb] [ab]3 z!>(! (a2 _c') | %12
 z [e=gbe']!>)!!p! z (.B z .cz.A | z .E)[K:bass] z (.B, z .Cz.A, | z .E,)z(.B,, | %15
 z .C,3 z .A,,3) || !>!E,2[K:treble] (3.[EG].[GB].[Be] !>![eg]2 .[fa].[gb] | %17
 !>![ac']2 !>![egc'e']2 !>![gbd'g']2 z2 | (3.[eg].[df].[ce] !>![Ac]2 (3.[GB].[FA].[EG] !>![CE]2- | %19
"^sostenuto"!>(! [CE]2 (=D2!>)!!pp! E2)!f!!<(! (3.[EG].[GB]!<)!!ff!.[Be] | !>![eg]8 | %21
 z [_fg]3- [fg] [eg]3 | z [_fg]3- [fg] [e=g]3- | [eg] [ea]3- [ea] [e=a]3 | z [fb]3- [fb] [=gb]3- | %25
 [gb] [_ab]3 z (a2 =c') | z [e=gbe'] z .e z [gb]3- | [gb] [ab]3 z (a2 _c') | %28
 z [e=gbe'] z (.B z .cz.A | z .E)[K:bass] z (.B, z .Cz.A, | z .E,)z(.B,, | z .C,3 z .A,,3) || %32
 !>!E,2[K:treble] (3.[EG].[GB].[Be] !>![eg]2 .[fa].[gb] | !>![ac']2 !>![egc'e']2 !>![gbd'g']2 z2 | %34
 (3.[eg].[df].[ce] !>![Ac]2 (3.[GB].[FA].[EG] !>![CE]2- | %35
!>(! [CE]2 (=D2!pp! E2)!>)!!f!!<(! (3.[EG].[GB]!<)!!ff!.[Be] | !>![eg]8 | z [_fg]3- [fg] [eg]3 | %38
 z [_fg]3- [fg] [e=g]3- | [eg] [ea]3- [ea] [e=a]3 | z [fb]3- [fb] [=gb]3- | %41
 [gb] [_ab]3 z (a2 =c') | z [e=gbe'] z .e z [gb]3- | [=gb] [ab]3- [ab] [a_c']3- || %44
[M:3/2] [ac'] [__bc']3 [e=g_be']4!8va(! !>![_g_be'g']4 || %45
[M:4/4]"^ten." [b=d'f'b']4- [bd'f'b']!8va)! z z2 |[K:bass] !>![E,=G,E]4 [E,A,E]4 | %47
 !fermata![E,B,E]8 |] %48
V:3
!f! !>![E,,E,]2!<(! (3.[E,G,].[G,B,]!<)!.[B,E][K:treble] !>![EG]2 .[FA].[GB] | %1
 !>![Ac]2 !>![CEGc]2 !arpeggio!!>![G,DB]2 z2 | %2
[K:bass]!p! .[C,C] z .[A,,A,] z .[E,,E,] z .[C,,C,] z | %3
 .[A,,,A,,] z !>![E,,,E,,]4!f!!<(! (3.[E,G,].[G,B,]!<)!!ff!.[B,E] | %4
[K:treble]!>(! !>![EG]4-!>)! [EG]4 | [_FG]4 [EG]4 | [_FG]4"^sempre cresc." [E=G]4 | %7
 [EA]4!<(! [E=A]4!<)! |!f!"^più" [FB]4!<(! [=GB]4!<)! |!ff! [_AB]4!>(! [EA]4!>)! | %10
!mp! !arpeggio![E,B,E=G] z .E z!<(! [GB]4!<)! |"^sostenuto"!f! [AB]4!f! [EA]4 | %12
 !arpeggio![E,B,E=G] z (B,2 C2 A,2 |[K:bass] E,2)"^dim." (B,,2 C,2 A,,2 | E,,2) (B,,,2 | %15
!pp! C,,4 A,,,4) || %16
!f! !>![E,,,E,,]2!<(! (3.[E,G,].[G,B,]!<)!.[B,E][K:treble]!ff! !>![EG]2 .[FA].[GB] | %17
 !>![Ac]2 !>![CEGc]2 !arpeggio!!>![G,DB]2 z2 | %18
[K:bass]!p! .[C,C] z .[A,,A,] z .[E,,E,] z .[C,,C,] z | %19
 .[A,,,A,,] z !>![E,,,E,,]4 (3.[E,G,].[G,B,].[B,E] |[K:treble]!>(! !>![EG]4-!>)!!p! [EG]4 | %21
 [_FG]4 [EG]4 | [_FG]4"^sempre" [E=G]4 | [EA]4!<(! [E=A]4!<)! |"^più"!f! [FB]4!<(! [=GB]4!<)! | %25
!ff! [_AB]4!>(! [EA]4 | !arpeggio![E,B,E=G]!>)! z!mp! .E z!<(! [GB]4!<)! | %27
"^sostenuto"!f! [AB]4!>(! [EA]4 | !arpeggio![E,B,E=G] z!>)![K:bass]!p! (B,2 C2 A,2 | %29
 E,2)"^dim." (B,,2 C,2 A,,2 | E,,2) (B,,,2 |!pp! C,,4 A,,,4) || %32
!f! !>![E,,,E,,]2!<(! (3.[E,G,].[G,B,]!<)!!ff!.[B,E][K:treble] !>![EG]2 .[FA].[GB] | %33
 !>![Ac]2 !>![CEGc]2 !arpeggio!!>![G,DB]2 z2 | %34
[K:bass]!p! .[C,C] z .[A,,A,] z .[E,,E,]"^sostenuto" z .[C,,C,] z | %35
 .[A,,,A,,] z !>![E,,,E,,]4 (3.[E,G,].[G,B,].[B,E] |[K:treble]!>(! !>![EG]4-!>)! [EG]4 | %37
 [_FG]4 [EG]4 | [_FG]4 [E=G]4 |"^cresc." [EA]4 [E=A]4 | [FB]4 [=GB]4 | [_AB]4 [EA]4 | %42
 !arpeggio![E,B,E=G] z .E z!<(! [GB]4!<)! | [AB]4!<(! [A_c]4!<)! || %44
[M:3/2]!ff! [__Bc]4 !>![_B,E=G_B]4[K:bass] !>![E,=B,E_G]4 || %45
[M:4/4] !arpeggio![B,,F,B,=DF]2 z2!p! (.[B,,,B,,]2 .[B,,,B,,]2) |!>(! (!>![C,,C,]4 [A,,,A,,]4 | %47
!>(! !fermata![E,,,B,,,E,,]8)!>)!!>)! |] %48
V:4
 x8 | x8 | x8 | x2 (B,A, G,2) x2 | z4 z .cz.=c | x .dz.G z ._cz.=c | x .dz.G z ._cz.B | %7
 x .cz.B z .cz.=c | x .=dz.B z .ez.=e | x .fz.B z .[=ce]3 | x5 .ez.=e | x .fz.B z .[_ce]3 | x8 | %13
 x2[K:bass] x6 | x4 | x8 || x2[K:treble] x6 | x8 | x8 | x2 (B,A, G,2) x2 | z4 z .cz.=c | %21
 x .dz.G z ._cz.=c | x .dz.G z ._cz.B | x .cz.B z .cz.=c | x .=dz.B z .ez.=e | x .fz.B x .[=ce]3 | %26
 x5 .ez.=e | z .fz.B x [_ce]3 | x8 | x2[K:bass] x6 | x4 | x8 || x2[K:treble] x6 | x8 | x8 | %35
 x2 (B,A, G,2) x2 | z4 z .cz.=c | x .dz.G z ._cz.=c | x .dz.G z ._cz.B | z .cz.B z .cz.=c | %40
 x .=dz.B z .ez.=e | z .fz.B x .[=ce]3 | x5 .ez.=e | z .fz.B z =ezf || %44
[M:3/2] z .gz.c x4!8va(! x4 ||[M:4/4] x5!8va)! x3 |[K:bass] x8 | x8 |] %48
V:5
 x4[K:treble] x4 | x8 |[K:bass] x8 | x8 |[K:treble] z4 .C!p!z.=C z | .Dz.G, z ._Cz.=C z | %6
 .Dz.G, z ._Cz.B, z | .Cz.B, z .Cz.=C z | .=Dz.B, z .Ez.=E z | .Fz.B, z .=Cz.A, z | x4 .Ez.=E z | %11
 .Fz.B, z ._Cz.A, z | x8 |[K:bass] x8 | x4 | x8 || x4[K:treble] x4 | x8 |[K:bass] x8 | x8 | %20
[K:treble] z4 .C"^leggiero"z.=C z | .Dz.G, z ._Cz.=C z | .Dz.G, z ._Cz.B, z | .Cz.B, z .Cz.=C z | %24
 .=Dz.B, z .Ez.=E z | .Fz.B, z .=Cz.A, z | x4 .Ez.=E z | .Fz.B, z ._Cz.A, z | x2[K:bass] x6 | x8 | %30
 x4 | x8 || x4[K:treble] x4 | x8 |[K:bass] x8 | x8 |[K:treble] z4 .C!p!"^leggiero"z.=C z | %37
 .Dz.G, z ._Cz.=C z | .Dz.G, z ._Cz.B, z | .Cz.B, z .Cz.=C z | .=Dz"^sempre più".B, z .E!f!z.=E z | %41
 .Fz.B, z .=Cz.A, z | x4 .Ez.=E z | .Fz.B, z .=Ez.F z || %44
[M:3/2] .Gz.C"^sostenuto" z x4[K:bass] x4 ||[M:4/4] x8 | x8 | x8 |] %48

